packages/core/src/svgs/phb.svg

<svg width="24" height="24" viewBox="0 0 24 24" fill="none" xmlns="http://www.w3.org/2000/svg">
<g clip-path="url(#clip0_31_15931)">
<path d="M0 0H24V24H0V0Z" fill="url(#paint0_linear_31_15931)"/>
<path d="M11.9868 15.3209C12.0018 15.2909 12.0356 15.308 12.0511 15.3209L12.3622 18.9624L12.0189 19.2856L11.6589 18.9624C11.7618 17.7612 11.9718 15.3504 11.9868 15.3209Z" fill="#E61E28"/>
<path d="M11.2842 12.6645L11.612 12.2573L12.0098 13.1016L12.4139 12.2573L12.7418 12.6645L12.0098 14.2408L11.2842 12.6645Z" fill="url(#paint1_linear_31_15931)"/>
<path d="M11.6645 11.8029L12.0159 11.4429L12.3729 11.8029L12.0155 12.4577L11.6641 11.8024L11.6645 11.8029Z" fill="url(#paint2_linear_31_15931)"/>
<path d="M5.30836 12.0811L4.9895 11.1494L11.4669 13.8743L11.8792 14.5943L11.3161 18.6623L10.8232 18.2054L11.6375 14.5943L5.30836 12.0811Z" fill="url(#paint3_linear_31_15931)"/>
<path d="M18.6918 12.0811L19.0111 11.1494L12.5336 13.8743L12.1213 14.5943L12.6845 18.6623L13.1773 18.2054L12.3626 14.5943L18.6918 12.0811Z" fill="url(#paint4_linear_31_15931)"/>
<path d="M10.25 11.6261L3.42847 6.85693L4.10775 8.71822L10.6563 12.3898L10.25 11.6261Z" fill="url(#paint5_linear_31_15931)"/>
<path d="M13.7498 11.6261L20.5714 6.85693L19.8921 8.71822L13.3435 12.3898L13.7498 11.6261Z" fill="url(#paint6_linear_31_15931)"/>
<path d="M4.80938 10.6537L4.2981 9.2373L10.8458 12.7533L11.2491 13.5029L4.80938 10.6537Z" fill="url(#paint7_linear_31_15931)"/>
<path d="M19.1907 10.6537L19.702 9.2373L13.1543 12.7533L12.751 13.5029L19.1907 10.6537Z" fill="url(#paint8_linear_31_15931)"/>
</g>
<defs>
<linearGradient id="paint0_linear_31_15931" x1="4.46486" y1="4.16229" x2="29.2059" y2="32.5787" gradientUnits="userSpaceOnUse">
<stop stop-color="#1A1E21"/>
<stop offset="1" stop-color="#06060A"/>
</linearGradient>
<linearGradient id="paint1_linear_31_15931" x1="12.0128" y1="12.2573" x2="12.0128" y2="14.2408" gradientUnits="userSpaceOnUse">
<stop stop-color="#E9231E"/>
<stop offset="1" stop-color="#E42021"/>
</linearGradient>
<linearGradient id="paint2_linear_31_15931" x1="12.0185" y1="11.4429" x2="12.0185" y2="12.4577" gradientUnits="userSpaceOnUse">
<stop stop-color="#E53A2D"/>
<stop offset="1" stop-color="#E82620"/>
</linearGradient>
<linearGradient id="paint3_linear_31_15931" x1="4.9895" y1="11.1494" x2="11.7181" y2="15.991" gradientUnits="userSpaceOnUse">
<stop stop-color="#F0341E"/>
<stop offset="1" stop-color="#E31D26"/>
</linearGradient>
<linearGradient id="paint4_linear_31_15931" x1="19.0111" y1="11.1494" x2="12.2821" y2="15.991" gradientUnits="userSpaceOnUse">
<stop stop-color="#F0341E"/>
<stop offset="1" stop-color="#E31D26"/>
</linearGradient>
<linearGradient id="paint5_linear_31_15931" x1="3.55361" y1="6.85693" x2="10.7005" y2="12.3324" gradientUnits="userSpaceOnUse">
<stop stop-color="#F7691F"/>
<stop offset="1" stop-color="#E9342A"/>
</linearGradient>
<linearGradient id="paint6_linear_31_15931" x1="20.4466" y1="6.85693" x2="13.2994" y2="12.3324" gradientUnits="userSpaceOnUse">
<stop stop-color="#F7691F"/>
<stop offset="1" stop-color="#E9342A"/>
</linearGradient>
<linearGradient id="paint7_linear_31_15931" x1="4.2981" y1="9.2373" x2="11.2791" y2="13.3323" gradientUnits="userSpaceOnUse">
<stop stop-color="#EE511F"/>
<stop offset="1" stop-color="#EE1B21"/>
</linearGradient>
<linearGradient id="paint8_linear_31_15931" x1="19.702" y1="9.2373" x2="12.721" y2="13.3323" gradientUnits="userSpaceOnUse">
<stop stop-color="#EE511F"/>
<stop offset="1" stop-color="#EE1B21"/>
</linearGradient>
<clipPath id="clip0_31_15931">
<rect width="24" height="24" fill="white"/>
</clipPath>
</defs>
</svg>

<svg xmlns="http://www.w3.org/2000/svg" width="24" height="24" fill="none" viewBox="0 0 24 24"><g clip-path="url(#a)"><path fill="url(#b)" d="M0 0h24v24H0z"/><path fill="#E61E28" d="M11.987 15.32c.015-.03.049-.012.064 0l.311 3.642-.343.324-.36-.324c.103-1.2.313-3.612.328-3.641"/><path fill="url(#c)" d="m11.284 12.665.328-.408.398.845.404-.845.328.408-.732 1.576z"/><path fill="url(#d)" d="m11.665 11.803.35-.36.358.36-.357.655z"/><path fill="url(#e)" d="m5.308 12.081-.319-.932 6.478 2.725.412.72-.563 4.068-.493-.457.814-3.61z"/><path fill="url(#f)" d="m18.692 12.081.32-.932-6.478 2.725-.413.72.563 4.068.493-.457-.814-3.61z"/><path fill="url(#g)" d="m10.25 11.626-6.822-4.77.68 1.862 6.548 3.672z"/><path fill="url(#h)" d="m13.75 11.626 6.821-4.77-.679 1.862-6.548 3.672z"/><path fill="url(#i)" d="m4.81 10.654-.512-1.417 6.548 3.516.403.75z"/><path fill="url(#j)" d="m19.19 10.654.512-1.417-6.548 3.516-.403.75z"/></g><defs><linearGradient id="b" x1="4.465" x2="29.206" y1="4.162" y2="32.579" gradientUnits="userSpaceOnUse"><stop stop-color="#1A1E21"/><stop offset="1" stop-color="#06060A"/></linearGradient><linearGradient id="c" x1="12.013" x2="12.013" y1="12.257" y2="14.241" gradientUnits="userSpaceOnUse"><stop stop-color="#E9231E"/><stop offset="1" stop-color="#E42021"/></linearGradient><linearGradient id="d" x1="12.018" x2="12.018" y1="11.443" y2="12.458" gradientUnits="userSpaceOnUse"><stop stop-color="#E53A2D"/><stop offset="1" stop-color="#E82620"/></linearGradient><linearGradient id="e" x1="4.989" x2="11.718" y1="11.149" y2="15.991" gradientUnits="userSpaceOnUse"><stop stop-color="#F0341E"/><stop offset="1" stop-color="#E31D26"/></linearGradient><linearGradient id="f" x1="19.011" x2="12.282" y1="11.149" y2="15.991" gradientUnits="userSpaceOnUse"><stop stop-color="#F0341E"/><stop offset="1" stop-color="#E31D26"/></linearGradient><linearGradient id="g" x1="3.554" x2="10.7" y1="6.857" y2="12.332" gradientUnits="userSpaceOnUse"><stop stop-color="#F7691F"/><stop offset="1" stop-color="#E9342A"/></linearGradient><linearGradient id="h" x1="20.447" x2="13.299" y1="6.857" y2="12.332" gradientUnits="userSpaceOnUse"><stop stop-color="#F7691F"/><stop offset="1" stop-color="#E9342A"/></linearGradient><linearGradient id="i" x1="4.298" x2="11.279" y1="9.237" y2="13.332" gradientUnits="userSpaceOnUse"><stop stop-color="#EE511F"/><stop offset="1" stop-color="#EE1B21"/></linearGradient><linearGradient id="j" x1="19.702" x2="12.721" y1="9.237" y2="13.332" gradientUnits="userSpaceOnUse"><stop stop-color="#EE511F"/><stop offset="1" stop-color="#EE1B21"/></linearGradient><clipPath id="a"><path fill="#fff" d="M0 0h24v24H0z"/></clipPath></defs></svg>
